X:48
T:May Day Morn THO4.048
M:6/8
L:1/8
Z:vmp. Peter Dunk 2010/11.from a transcription by Fynn Titford-Mock 2007
B:Thompson's Compleat Collection of 200 Favourite Country Dances Volume IV.
Q:3/8=100
K:G
dBG g2 d|BGB A2 c|Bgd g2 c|BdD GG<G::fdf Tg2 g|fdA e^cA|
fdf g2 c|BcA GG<G::B2 D B2 D|DFA cBA|B2 D d2 g|BdD GG<G:|

